X: 2
T: The Road To Corrandulla
R: reel
M: 4/4
L: 1/8
K: Amaj
|: ABce c2Bc | efec B2AF | ABce c2BA | BAFE BAFE |
ABce c2Bc | efec efae | f3a f2ef | afec B2A2 :|
|: EFAc B2A2 | (3cBA Bc f2e2 | EFAc B2AB | cFF2 AFEC |
EFAc B2AB | (3cBA Bc f2ec | efab f2ec |1 A3c B2AF :|2 A3c B2 c/2d/2e ||
|: f2ec B2f2 | efa2 f2ec | A2eA fAeA | ceae fece |
f2ec B2f2 | efa2 f2ec | A2eA fAeA |1 cfec B2 (3cde :|2 cfec B4 ||


Tune 5404	Setting 5404

